packages/elements/icon/utils/raw_svgs/emoji-add.svg

<?xml version="1.0" encoding="UTF-8" standalone="no"?>
<svg width="24px" height="24px" viewBox="0 0 24 24" version="1.1" xmlns="http://www.w3.org/2000/svg" xmlns:xlink="http://www.w3.org/1999/xlink">
    <!-- Generator: Sketch 48.2 (47327) - http://www.bohemiancoding.com/sketch -->
    <title>emoji/emoji-add</title>
    <desc>Created with Sketch.</desc>
    <defs></defs>
    <g id="Emoji" stroke="none" stroke-width="1" fill="none" fill-rule="evenodd">
        <g id="emoji/emoji-add" fill="#42526E" fill-rule="nonzero">
            <path d="M8.049,14.1967 C7.8827,13.7205 8.1524,13.2057 8.6513,13.0469 C9.1503,12.8881 9.6896,13.1455 9.8559,13.6219 C9.9168,13.796 10.0806,14.1088 10.3507,14.4182 C10.7766,14.906 11.3065,15.1819 11.9999,15.1819 C12.6933,15.1819 13.2232,14.906 13.6491,14.4182 C13.9192,14.1088 14.0831,13.796 14.1439,13.6218 C14.3102,13.1455 14.8495,12.8881 15.3485,13.0469 C15.8475,13.2057 16.1171,13.7205 15.9508,14.1967 C15.8211,14.568 15.5564,15.0733 15.1123,15.5821 C14.3479,16.4578 13.3064,17 12,17 C10.6935,17 9.6521,16.4578 8.8876,15.582 C8.4435,15.0733 8.1788,14.568 8.0491,14.1967 L8.049,14.1967 Z M9.5,11 C8.6716,11 8,10.3284 8,9.5 C8,8.6716 8.6716,8 9.5,8 C10.3284,8 11,8.6716 11,9.5 C11,10.3284 10.3284,11 9.5,11 Z M14.5,11 C13.6716,11 13,10.3284 13,9.5 C13,8.6716 13.6716,8 14.5,8 C15.3284,8 16,8.6716 16,9.5 C16,10.3284 15.3284,11 14.5,11 Z M19,5 L20,5 C20.5522847,5 21,5.44771525 21,6 C21,6.55228475 20.5522847,7 20,7 L19,7 L19,8 C19,8.55228475 18.5522847,9 18,9 C17.4477153,9 17,8.55228475 17,8 L17,7 L16,7 C15.4477153,7 15,6.55228475 15,6 C15,5.44771525 15.4477153,5 16,5 L17,5 L17,4 C17,3.44771525 17.4477153,3 18,3 C18.5522847,3 19,3.44771525 19,4 L19,5 Z M14,3.22301642 L14,5.28987868 C13.3662906,5.10127754 12.6949726,5 12,5 C8.13400677,5 5,8.13400677 5,12 C5,15.8659933 8.13400677,19 12,19 C15.8659933,19 19,15.8659933 19,12 C19,11.3050274 18.8987225,10.6337094 18.7101213,10 L20.7769836,10 C20.9229386,10.6432227 21,11.3126121 21,12 C21,16.9705627 16.9705627,21 12,21 C7.02943727,21 3,16.9705627 3,12 C3,7.02943727 7.02943727,3 12,3 C12.687388,3 13.3567773,3.07706144 14,3.22301642 Z" id="Shape"></path>
        </g>
    </g>
</svg>

<svg width="24" height="24" viewBox="0 0 24 24" xmlns="http://www.w3.org/2000/svg"><title>emoji-icon-v2</title><path d="M18.75 5.25h1.35a.9.9 0 1 1 0 1.8h-1.35V8.4a.9.9 0 1 1-1.8 0V7.05H15.6a.9.9 0 1 1 0-1.8h1.35V3.9a.9.9 0 1 1 1.8 0v1.35zm-3.7417-1.735c-.8536.1909-1.5545.7858-1.8917 1.5736A7.0508 7.0508 0 0 0 12 5c-3.866 0-7 3.134-7 7s3.134 7 7 7 7-3.134 7-7c0-.38-.0303-.753-.0886-1.1166.7878-.3372 1.3827-1.0381 1.5736-1.8917C20.8185 9.9324 21 10.945 21 12c0 4.9706-4.0294 9-9 9s-9-4.0294-9-9 4.0294-9 9-9c1.055 0 2.0676.1815 3.0083.515zM8.049 14.1967c-.1663-.4762.1034-.991.6023-1.1498.499-.1588 1.0383.0986 1.2046.575.0609.1741.2247.4869.4948.7963.4259.4878.9558.7637 1.6492.7637s1.2233-.2759 1.6492-.7637c.2701-.3094.434-.6222.4948-.7964.1663-.4763.7056-.7337 1.2046-.5749.499.1588.7686.6736.6023 1.1498-.1297.3713-.3944.8766-.8385 1.3854C14.3479 16.4578 13.3064 17 12 17c-1.3065 0-2.3479-.5422-3.1124-1.418-.4441-.5087-.7088-1.014-.8385-1.3853zM9.5 11C8.6716 11 8 10.3284 8 9.5S8.6716 8 9.5 8s1.5.6716 1.5 1.5-.6716 1.5-1.5 1.5zm5 0c-.8284 0-1.5-.6716-1.5-1.5S13.6716 8 14.5 8s1.5.6716 1.5 1.5-.6716 1.5-1.5 1.5z" fill="#42526E" fill-rule="nonzero"/></svg>
